!!!!SEGMENT: pl-kk--kk-i-66--007_anonim--missa-agnus-dei.krn
!!!cenid: 17xx:2264
!!!COM: Anonim
!!!COM-rismid: pe30004985
!!!CDT:
!!!CNT:
!!!OPR: Missa
!!!OTL: Agnus Dei
!!!OMV: 007
!!!PDT:
!!!AGN: Sacred; Mass
!!!SMS-siglum: PL-Kk
!!!SMS-shelfmark: Kk.I.66
!!!SMS-shelfwork: 001-007 M
!!!SMS-variant: Baſso PL-Kk KK.I.66:0014
!!!SMS-altvar: Baſsô PL-Kk KK.I.66:0019-0020
!!!NIFC-rismid: 1001154622
!!!URL-scan: http://repozytorium.nifc.pl/skany/pl-kk-nut--i-66
!!!ONB-nifc: UWAGA: części Mszy: 1. Salve sancta parens, 2. Kyrie, 3. Et in terra, 4. Alleluia virga jesse floruit, 5. Beata es virgo Maria, 6. Sanctus, 7. Agnus Dei, 8. Dona nobis, 9. Deo gratias
**kern	**text	**kern	**text	**kern	**text
*part3	*part3	*part2	*part2	*part1	*part1
*staff3	*staff3	*staff2	*staff2	*staff1	*staff1
*I"Baſso	*	*I"Tenore Secundo.	*	*I"Tenore Primo	*
*I'B	*	*I'T 2	*	*I'T 1	*
*clefF4	*	*clefC4	*	*clefC4	*
*k[]	*	*k[]	*	*k[]	*
*C:	*	*C:	*	*C:	*
*M2/2	*	*M2/2	*	*M2/2	*
*met(c|)	*	*met(c|)	*	*met(c|)	*
=1	=1	=1	=1	=1	=1
*	*	*2\right	*	*2\right	*
4C/	A-	2e\	A-	2g\	A-
4D/	.	.	.	.	.
4E/	-gnus	2c\	-gnus	2e\	-gnus
4C/	.	.	.	.	.
=2	=2	=2	=2	=2	=2
*2\right	*	*	*	*	*
2G\	De-	2B\	De-	2d\	De-
4G\	-i	4B\	-i	4d\	-i
4G\	qui	4c\	qui	4e\	qui
=3	=3	=3	=3	=3	=3
4G\	tol-	4d\	tol-	4f\	tol-
4A\	-lis	4c\	-lis	4e\	-lis
4B\	pec-	4d\	pec-	4f\	pec-
4G\	.	4B\	.	4d\	.
=4	=4	=4	=4	=4	=4
4E\	-ca-	4c\	-ca-	4e\	-ca-
4D\	.	4d\	.	4f\	.
2C/	-ta	2e\	-ta	2g\	-ta
=5	=5	=5	=5	=5	=5
2r	.	2r	.	2r	.
2C/	pec-	2e\	pc-	2g\	pec-
=6	=6	=6	=6	=6	=6
2C/	-ca-	2e\	-ca-	2g\	-ca-
4F\	-ta	4d\	-ta	4f\	-ta
4F#X\	.	4c\	.	4e\	.
=7	=7	=7	=7	=7	=7
2G\	mun-	2B\	mun-	2d\	mun-
2G\	-di	2B\	-di	2d\	-di
!LO:LB:g=original	!	!LO:LB:g=original	!	!LO:LB:g=original	!
=8	=8	=8	=8	=8	=8
2G\	mi-	4B\	mi-	4d\	mi-
.	.	4d\	.	4f\	.
2c\	-se-	4c\	-se-	4e\	-se-
.	.	4e\	.	4g\	.
=9	=9	=9	=9	=9	=9
2G\	-re-	4d\	-re-	4f\	-re-
.	.	4B\	.	4d\	.
2C/	-re	2G/	-re	2e\	-re
=10	=10	=10	=10	=10	=10
2G\	mi-	4B\	mi-	4d\	mi-
.	.	4d\	.	4f\	.
2G\	-se-	4c\	-se-	4e\	-se-
.	.	4e\	.	4g\	.
=11	=11	=11	=11	=11	=11
2G\	-re-	4d\	-re-	4f\	-re-
.	.	4B\	.	4d\	.
2C/	-re	2G/	-re	2e\	-re
=12	=12	=12	=12	=12	=12
1G	no-	2B\	no-	2d\	no-
.	.	4c\	.	4e\	.
.	.	4d\	.	4f\	.
=13	=13	=13	=13	=13	=13
2C/	.	2e\	.	2g\	.
4D/	.	4d\	.	4f\	.
4E/	.	4c\	.	4e\	.
=14	=14	=14	=14	=14	=14
2G\	.	2B\	.	2d\	.
2c\	.	2c\	.	2e\	.
!	!	!	!	!LO:LB:g=original	!
=15	=15	=15	=15	=15	=15
1G	.	2c\	.	1d	.
.	.	2B\	.	.	.
=16	=16	=16	=16	=16	=16
!	!	!LO:N:vis=1.	!	!	!
1C	-bis	1G	-bis	1e	-bis
!LO:PB:g=original	!	!LO:LB:g=original	!	!LO:LB:g=original	!
=17||	=17||	=17||	=17||	=17||	=17||
*M2/2	*	*M2/2	*	*M2/2	*
*met(c|)	*	*met(c|)	*	*met(c|)	*
!LO:TX:b:t=Agnus	!	!	!	!LO:TX:t=P:problem:"Solo." dopisane ołówkiem	!
0r	.	1r	.	4c\	A-
.	.	.	.	4B\	.
.	.	.	.	4c\	-gnus
.	.	.	.	4d\	.
=18	=18	=18	=18	=18	=18
.	.	4c\	A-	4e\	De-
.	.	4B\	.	4d\	i
.	.	4c\	-gnus	4e\	qui
.	.	4d\	.	4f\	.
=19	=19	=19	=19	=19	=19
4C/	De-	4e\	De-	1g	tol-
4BB/	.	4d\	-i	.	.
4C/	-i	4e\	qui	.	.
4D/	qui	4f\	.	.	.
=20	=20	=20	=20	=20	=20
4C/	tol-	4e\	tol-	4g\	-lis
4D/	.	4d\	.	4f\	pec-
4E/	-lis	4c\	-lis	4e\	-ca-
4G\	pec-	4B\	pec-	4d\	-ta
=21	=21	=21	=21	=21	=21
4c\	-ca-	2G/	-ca-	1e	mun-
4G\	.	.	.	.	.
4E\	-ta	2G/	-ta	.	.
4C/	.	.	.	.	.
=22	=22	=22	=22	=22	=22
2G\	mun-	2c\	mun-	2e\	.
2G\	-di	2B\	-di	2d\	-di
=23	=23	=23	=23	=23	=23
2G\	mi-	4G/	mi-	4B\	mi-
.	.	4A/	.	4c\	.
2G\	-se-	4B/	-se-	4d\	-se-
.	.	4c/	.	4e\	.
!	!	!LO:LB:g=original	!	!LO:LB:g=original	!
=24	=24	=24	=24	=24	=24
2G\	-re-	4d\	-re-	4f\	-re-
.	.	4B\	.	4d\	.
2c\	-re	2c\	-re	2e\	-re
=25	=25	=25	=25	=25	=25
2G\	mi-	4B\	mi-	4d\	mi-
.	.	4A\	.	4c\	.
2G\	-se-	4G\	-se-	4B\	-se-
.	.	4A\	.	4c\	.
!LO:LB:g=original	!	!	!	!	!
=26	=26	=26	=26	=26	=26
2G\	-re-	4B\	-re-	4d\	-re-
.	.	4c\	.	4e\	.
2G\	-re	2d\	-re	2f\	-re
=27	=27	=27	=27	=27	=27
2c\	no-	2c\	no-	2e\	no-
4G\	.	4B\	.	4d\	.
4E\	.	4c\	.	4e\	.
=28	=28	=28	=28	=28	=28
2F\	.	2A/	.	2f\	.
4E\	.	4c\	.	4e\	.
4F\	.	4B\	.	4d\	.
=29	=29	=29	=29	=29	=29
1G	.	2c\	.	2e\	.
.	.	2B\	.	2d\	.
=30	=30	=30	=30	=30	=30
!LO:N:vis=1.	!	!	!	!	!
1C	-bis	1c	-bis	1e	-bis
!LO:LB:g=original	!	!LO:LB:g=original	!	!LO:LB:g=original	!
=31||	=31||	=31||	=31||	=31||	=31||
*M3/2	*	*M3/2	*	*M3/2	*
2C/	A-	2e\	A-	1g	A-
2E/	.	2c\	.	.	.
2C/	-gnus	2e\	-gnus	2e\	-gnus
=32	=32	=32	=32	=32	=32
2G\	De-	2c\	De-	2e\	De-
2G\	-i	2B\	-i	2d\	-i
2B\	qui	2d\	wui	2f\	qui
=33	=33	=33	=33	=33	=33
2B\	tol-	2d\	tol-	2f\	tol-
2c\	-lis	2c\	-lis	2e\	-lis
2C/	pec-	2e\	pec-	2g\	pec-
=34	=34	=34	=34	=34	=34
2C/	-ca-	2e\	-ca-	2g\	-ca-
2D/	.	2d\	.	2f\	.
2E\	-ta	2c\	-ta	2e\	-ta
=35	=35	=35	=35	=35	=35
2G\	mun-	2c\	mun-	2e\	mun-
2G\	-di	2B\	-di	2d\	-di
4r	.	4r	.	4r	.
4G\	qui	4d\	qui	4f\	[qui
=36	=36	=36	=36	=36	=36
1G	tol-	2d\	tol-	2f\	tol-
.	.	2B\	.	2d\	.
2c\	-lis	2c\	-lis	2e\	-lis]
!LO:LB:g=original	!	!LO:LB:g=original	!	!LO:LB:g=original	!
=37	=37	=37	=37	=37	=37
2C/	pec-	2e\	pec-	2g\	pec-
2D/	.	2d\	.	2f\	.
2E/	.	2c\	.	2e\	.
=38	=38	=38	=38	=38	=38
2F\	-ca-	1d	ca-	1f	-ca-
2D/	.	.	.	.	.
2C/	-ta	2c\	-ta	2e\	-ta
=39	=39	=39	=39	=39	=39
2C/	mun-	1.c	mun-	1.e	mun-
2E\	.	.	.	.	.
2F#X\	.	.	.	.	.
=40	=40	=40	=40	=40	=40
1.G	-di	1.B	-di	1.d	-di
==	==	==	==	==	==
*-	*-	*-	*-	*-	*-
!!!system-decoration: [(s1,s2,s3)]
!!!ENC: Andrzej Kubiczek
!!!END: 2021-08-06
!!!ENC: Krzysztof Stępień
!!!END: 2021-07-07
